!!!COM: Ernest Chausson
!!!CNT: Francais
!!!TXO: Francais
!!!OTL: La Caravane
!!!OPS: Op. 14
!!!LYR: Theophile Gautier
!!!ENC: Jacob Pegg
!!!YOR: 20 Songs for Voice and Piano, International Music Company, New York City, January, 1952
!!!ODT: 1887/
!!NB: Vocal melody and text only encoded.
**kern	**silbe
*clef G2	*
*k[b-e-a-]	*
*M4/4	*
=6	=6
8r	.
{8c	{La
8d	ca-
8d	-ra-
4e-	-vane
4g	hu-
=7	=7
2g	-mai-
4g	-ne,
4r	.
=8	=8
6g	au
6a-	Sa-
6b-	-ha-
4cc	-ra
4a-	du
=9	=9
[2g	mon-
4g]	|
8f}	de}
8r	.
=10	=10
{4dd-	{Par
8dd-	ce
8dd-	che-
4cc	-min-
4g	-des
=11	=11
[2a-	ans
8a-]	|
4b--	qui
8c-	n'a
=12	=12
2b-	plus
4an	de
4f	re-
=13	=13
[2a-	-tour,
4a-]	|
4g	S'en
=14	=14
[1g	va,
=15	=15
2g]	|
8r	.
8e-	trai^-
(12e-	-nant
12d)	|
12c	le
=16	=16
2c}	pied,}
2r	.
=17	=17
{4g	{bru^-
[2.b-	-le/e
=18	=18
4b-]	|
4a-	aux
4a-	feux
4f	du
=19	=19
[2dd-	jour,
4dd-_	|
8dd-]	|
8r	.
=20	=20
8cc	Et
8cc	bu-
4.dd-	-vant
([8cc	sur
12cc]	|
12cc-	|
12b-)	ses
=21	=21
[2a-	bras
8a-]	|
([8g	la
12g]	|
12g-)	|
12f	su-
=22	=22
([2f	-eur
8f]	|
8e-)	|
(12e-	qui
12d-)	|
12c	l'i
=23	=23
2c	-non-
8c}	-de.}
8r	.
4r	.
=28	=28
8r	.
{8g-	{Le
8g-	grand
8g-	li-
4.g-	-on
8g-	ru-
=29	=29
2gn	-git,
2r	.
=30	=30
8r	.
8a-	et
8a-	la
8a-	tem-
4.cc	-pe^-
8bn	-te
=31	=31
(2.ff	gron-
4f)	|
=32	=32
2f-}	-de}
2r	.
=33	=33
1r	.
=34	=34
2r	.
8r	.
{8f-	{A
8f-	l'hor-
8e-	-i-
=35	=35
4e-	-zon
4e-	fu-
[2a-	-yard,
=36	=36
4a-]	|
4r	.
8r	.
8b-	ni
8cc-	mi-
8cc-	-na-
=37	=37
(2dd-	-ret,
4cc)	|
4g-	ni
=38	=38
[2g-	tour.
8g-]}	|}
8r	.
4r	.
=39	=39
1r	.
=40	=40
8r	.
{8g-	{La
8g-	seule
4g-	om-
8g-	-bre
4gn	qu'on
=41	=41
[2ccn	ait
4ccn]	|
8r	.
8b-	c'est
=42	=42
[2ddn	l'om-
8ddn]	|
8ddn	bre
8ddn	du
8ee-	vau-
=43	=43
4ee-	-tour
8dd	qui
8dd	tra-
4dd-	-ver-
8dd-	-se
8cc	le
=44	=44
[2cc-	ciel,
4cc-]}	|}
4r	.
=45	=45
{2gn	{cher-
[2a-	-chant
=46	=46
2a-]	|
(4g	sa
4c)	|
*M2/4	*
=47	=47
4.B-	proie
8en	im-
=48	=48
*M4/4	*
1en	-mon-
=49	=49
2An	-de.
2r	.
=50	=50
1r	.
=51	=51
1r	.
=52	=52
4r	.
8en	L'on
8en	av-
4en	-an-
8en	-ce
8f	tou-
=53	=53
2f}	-jours,}
2r	.
=54	=54
1r	.
=55	=55
1r	.
=56	=56
{8cc	{Et
8cc	voi-
4.cc	-ci
4cc	que
8cc	l'on
=57	=57
4dd-	voit
8a-	quel
8a-	que
4a-	cho-
8a-	-se
8a-	de
=58	=58
[2a-	vert
8a-]	|
8a-	que
8a-	l'on
8a-	se
=59	=59
2.dd-	montre
4b-	au
=60	=60
2ff}	doigt!}
2r	.
=70	=70
4r	.
{8f	{C'est
8f	un
4f	bois
8f	de
8f	cy-
=71	=71
2.a-	-pre\s
4a-	se-
=72	=72
4.a-	-me/
8a-	de
4a-	blan-
4a-	-ches
=73	=73
2g	pier-
4g}	-res}
4r	.
=74	=74
1r	.
=75	=75
1r	.
*k[]	*
=76	=76
2r	.
{2e	{Dieu,
=77	=77
8e	pour
8e	vous
8d	re-
8c	-pos-
[2g	-er,
=78	=78
8g]	|
8g	dans
8b-	le
8cc	de/-
4dd	-sert
4g	du
=79	=79
[2b-	temps
8b-]}	|}
8r	.
4r	.
=80	=80
{4f	{Com-
8e	-me
8e	des
8c	o-
8c	-a-
4d	-sis
=81	=81
4d	a
4d	mis
4e	les
8e	ci-
8e	-me-
=82	=82
2.e	-tie\-
[4e	-res,
=83	=83
4e_	|
8e]}	|}
8r	.
4r	.
4r	.
=84	=84
2r	.
{4c	{Cou-
4c	-chez~
=85	=85
[2c	~vous,
8c]	|
4c	et
8c	dor-
=86	=86
*M2/4	*
[2c	-mez,
=87	=87
*M4/4	*
2c]	|
4c	Voy-
4e-	-a-
=88	=88
2e	-geurs
4e	ha-
4d	-le-
=89	=89
1d}	-tants!}
*-	*-
